rospo-icon-theme-classic-common/64x64/places/folder-orange-templates.svg

<svg height="64" width="64" xmlns="http://www.w3.org/2000/svg"><rect height="32" opacity=".2" rx="2.5" width="50" x="7" y="24"/><path d="m7 44.5c0 1.385 1.115 2.5 2.5 2.5h45c1.385 0 2.5-1.115 2.5-2.5v-27c0-1.385-1.115-2.5-2.5-2.5h-25.5v-2.5c0-1.385-1.115-2.5-2.5-2.5h-17c-1.385 0-2.5 1.115-2.5 2.5" fill="#dd772f"/><rect height="32" opacity=".2" rx="2.5" width="50" x="7" y="22"/><rect fill="#e4e4e4" height="20" rx="2.5" width="44" x="10" y="18"/><rect fill="#ee923a" height="32" rx="2.5" width="50" x="7" y="23"/><path d="m9.5 10c-1.385 0-2.5 1.115-2.5 2.5v1c0-1.385 1.115-2.5 2.5-2.5h17c1.385 0 2.5 1.115 2.5 2.5v-1c0-1.385-1.115-2.5-2.5-2.5zm19.5 5v1h25.5c1.39 0 2.5 1.115 2.5 2.5v-1c0-1.385-1.11-2.5-2.5-2.5z" fill="#fff" opacity=".1"/><path d="m25.5 29c-.831 0-1.5.669-1.5 1.5v11.5h1v-1h1v-10h8v4h4v12 1h1v-1h1v-13l-5-5zm13.5 19v1h1v-1zm-1 0h-1v1h1zm-1 0v-1h-1v1zm-1 0h-1v1h1zm-1 0v-1h-1v1zm-1 0h-1v1h1zm-1 0v-1h-1v1zm-1 0h-1v1h1zm-1 0v-1h-1v1zm-1 0h-1v1h1zm-1 0v-1h-1v1zm-1 0h-1v1h1zm-1 0v-1h-1v1zm-1 0h-1v1h1zm-1 0v-1h-1v1zm0-1h1v-1h-1zm0-1v-1h-1v1zm0-1h1v-1h-1zm0-1v-1h-1v1zm0-1h1v-1h-1z" fill="#533314"/></svg>

<svg xmlns="http://www.w3.org/2000/svg" width="64" height="64" version="1.1">
 <rect style="opacity:0.2" width="50" height="32" x="7" y="24" rx="2.5" ry="2.5"/>
 <path style="fill:#dd772f" d="M 7,44.5 C 7,45.885 8.115,47 9.5,47 H 54.5 C 55.885,47 57,45.885 57,44.5 V 17.5 C 57,16.115 55.885,15 54.5,15 H 29 V 12.5 C 29,11.115 27.885,10 26.5,10 H 9.5 C 8.115,10 7,11.115 7,12.5"/>
 <rect style="opacity:0.2" width="50" height="32" x="7" y="22" rx="2.5" ry="2.5"/>
 <rect style="fill:#dcdcdc" width="44" height="20" x="10" y="18" rx="2.5" ry="2.5"/>
 <rect style="fill:#ee923a" width="50" height="32" x="7" y="23" rx="2.5" ry="2.5"/>
 <path style="opacity:0.1;fill:#ffffff" d="M 9.5,10 C 8.115,10 7,11.115 7,12.5 V 13.5 C 7,12.115 8.115,11 9.5,11 H 26.5 C 27.885,11 29,12.115 29,13.5 V 12.5 C 29,11.115 27.885,10 26.5,10 Z M 29,15 V 16 H 54.5 C 55.89,16 57,17.115 57,18.5 V 17.5 C 57,16.115 55.89,15 54.5,15 Z"/>
 <path style="fill:#533314" d="M 25.5 29 C 24.669 29 24 29.669 24 30.5 L 24 42 L 25 42 L 25 41 L 26 41 L 26 31 L 34 31 L 34 35 L 38 35 L 38 47 L 38 48 L 39 48 L 39 47 L 40 47 L 40 34 L 35 29 L 25.5 29 z M 39 48 L 39 49 L 40 49 L 40 48 L 39 48 z M 38 48 L 37 48 L 37 49 L 38 49 L 38 48 z M 37 48 L 37 47 L 36 47 L 36 48 L 37 48 z M 36 48 L 35 48 L 35 49 L 36 49 L 36 48 z M 35 48 L 35 47 L 34 47 L 34 48 L 35 48 z M 34 48 L 33 48 L 33 49 L 34 49 L 34 48 z M 33 48 L 33 47 L 32 47 L 32 48 L 33 48 z M 32 48 L 31 48 L 31 49 L 32 49 L 32 48 z M 31 48 L 31 47 L 30 47 L 30 48 L 31 48 z M 30 48 L 29 48 L 29 49 L 30 49 L 30 48 z M 29 48 L 29 47 L 28 47 L 28 48 L 29 48 z M 28 48 L 27 48 L 27 49 L 28 49 L 28 48 z M 27 48 L 27 47 L 26 47 L 26 48 L 27 48 z M 26 48 L 25 48 L 25 49 L 26 49 L 26 48 z M 25 48 L 25 47 L 24 47 L 24 48 L 25 48 z M 25 47 L 26 47 L 26 46 L 25 46 L 25 47 z M 25 46 L 25 45 L 24 45 L 24 46 L 25 46 z M 25 45 L 26 45 L 26 44 L 25 44 L 25 45 z M 25 44 L 25 43 L 24 43 L 24 44 L 25 44 z M 25 43 L 26 43 L 26 42 L 25 42 L 25 43 z"/>
</svg>
